Papirus/22x22/panel/caps-lock-on.svg

<?xml version="1.0" encoding="UTF-8" standalone="no"?>
<svg xmlns:dc="http://purl.org/dc/elements/1.1/" xmlns:cc="http://creativecommons.org/ns#" xmlns:rdf="http://www.w3.org/1999/02/22-rdf-syntax-ns#" xmlns:svg="http://www.w3.org/2000/svg" xmlns="http://www.w3.org/2000/svg" id="svg2" viewBox="0 0 24 24" version="1.1" width="22" height="22">
    <metadata id="metadata14">
        <rdf:RDF>
            <cc:Work rdf:about="">
                <dc:format>
                    image/svg+xml
                </dc:format>
                <dc:type rdf:resource="http://purl.org/dc/dcmitype/StillImage"/>
                <dc:title/>
            </cc:Work>
        </rdf:RDF>
    </metadata>
    <path id="path6" transform="scale(1.0909091,1.0909091)" d="M 6 3 A 2.0002001 2.0002001 0 0 0 4.0117188 4.7792969 L 3.0117188 13.779297 A 2.0002001 2.0002001 0 0 0 5 16 L 17 16 A 2.0002001 2.0002001 0 0 0 18.988281 13.779297 L 17.988281 4.7792969 A 2.0002001 2.0002001 0 0 0 16 3 L 6 3 z M 9.8984375 5.0390625 L 12.212891 5.0390625 L 15.123047 14 L 13.212891 14 L 12.603516 11.875 L 9.5273438 11.875 L 8.9101562 14 L 7 14 L 9.8984375 5.0390625 z M 11.064453 6.296875 C 11.048457 6.3863747 11.02705 6.4932344 10.998047 6.6152344 C 10.974049 6.7373344 10.94325 6.8674593 10.90625 7.0058594 C 10.874249 7.1400594 10.838736 7.2756624 10.802734 7.4140625 C 10.765738 7.5523625 10.732222 7.6825875 10.699219 7.8046875 C 10.667218 7.9267875 10.63642 8.0353062 10.607422 8.1289062 C 10.583424 8.2225063 10.564734 8.2912374 10.552734 8.3359375 L 9.984375 10.289062 L 12.164062 10.289062 L 11.589844 8.3359375 C 11.564846 8.2627371 11.529465 8.1433626 11.480469 7.9765625 C 11.432472 7.8096625 11.377313 7.6251813 11.320312 7.4257812 C 11.267311 7.2222812 11.216969 7.0199063 11.167969 6.8164062 C 11.118973 6.6130063 11.085448 6.439275 11.064453 6.296875 z M 3 16.203125 L 3 16.75 C 3 17.962 4.0380999 19 5.25 19 L 16.75 19 C 17.962 19 19 17.962 19 16.75 L 19 16.203125 C 18.468001 16.688125 17.775 17 17 17 L 5 17 C 4.2254 17 3.5316 16.688125 3 16.203125 z " style="color:#000000;text-indent:0;text-decoration:none;text-decoration-line:none;text-decoration-style:solid;text-decoration-color:#000000;text-transform:none;block-progression:tb;white-space:normal;opacity:1;isolation:auto;mix-blend-mode:normal;solid-color:#000000;fill:#ffffff;fill-opacity:1;fill-rule:evenodd;color-rendering:auto;image-rendering:auto;shape-rendering:auto"/>
</svg>

<?xml version="1.0" encoding="UTF-8" standalone="no"?>
<svg id="svg2" xmlns:rdf="http://www.w3.org/1999/02/22-rdf-syntax-ns#" xmlns="http://www.w3.org/2000/svg" viewBox="0 0 24 24" width="22" version="1.1" xmlns:cc="http://creativecommons.org/ns#" height="22" xmlns:dc="http://purl.org/dc/elements/1.1/">
 <metadata id="metadata14">
  <rdf:RDF>
   <cc:Work rdf:about="">
    <dc:format>image/svg+xml</dc:format>
    <dc:type rdf:resource="http://purl.org/dc/dcmitype/StillImage"/>
    <dc:title/>
   </cc:Work>
  </rdf:RDF>
 </metadata>
 <path id="path6" style="color-rendering:auto;text-decoration-color:#000000;color:#000000;isolation:auto;mix-blend-mode:normal;shape-rendering:auto;solid-color:#000000;block-progression:tb;text-decoration-line:none;image-rendering:auto;white-space:normal;text-indent:0;text-transform:none;text-decoration-style:solid" d="m6 3a2.0002 2.0002 0 0 0 -1.9883 1.7793l-1 8.9997a2.0002 2.0002 0 0 0 1.9883 2.221h12a2.0002 2.0002 0 0 0 1.988 -2.221l-1-8.9997a2.0002 2.0002 0 0 0 -1.988 -1.7793h-10zm3.8984 2.0391h2.3146l2.91 8.9609h-1.91l-0.609-2.125h-3.0767l-0.6171 2.125h-1.9102l2.8984-8.9609zm1.1656 1.2578c-0.016 0.0895-0.037 0.1963-0.066 0.3183-0.024 0.1221-0.055 0.2523-0.092 0.3907-0.032 0.1342-0.067 0.2698-0.103 0.4082-0.037 0.1383-0.071 0.2685-0.104 0.3906-0.032 0.1221-0.063 0.2306-0.092 0.3242-0.024 0.0936-0.042 0.1623-0.054 0.207l-0.5686 1.9531h2.1796l-0.574-1.9531c-0.025-0.0732-0.061-0.1925-0.11-0.3593-0.048-0.1669-0.103-0.3514-0.16-0.5508-0.053-0.2035-0.103-0.4059-0.152-0.6094-0.049-0.2034-0.083-0.3771-0.104-0.5195zm-8.064 9.9061v0.547c0 1.212 1.0381 2.25 2.25 2.25h11.5c1.212 0 2.25-1.038 2.25-2.25v-0.547c-0.532 0.485-1.225 0.797-2 0.797h-12c-0.7746 0-1.4684-0.312-2-0.797z" fill-rule="evenodd" transform="scale(1.0909)" fill="#fff"/>
</svg>
